X:511
T:Gladlåten
R:Polska
Z:Transcribed to abcby Jon Magnusson 080828
O:Dalarna
M:3/4
L:1/8
K:A
e|a2 e/2f/2e/2d/2 c>e|a2 ag/2a/2 b>g|a2 e/2f/2e/2d/2 c>A|B2B3 e|
a2 e/2f/2e/2d/2 c>e|a2 ag/2a/2 b>g|a2 e/2f/2e/2d/2 c>A|[1 B<G A4 e:|[2 B<G A4 c|]
|:d>f ed c>A|BA/2G/2 A2 B>c|d>f ed c>A|B2 B3 c|
d>f ed c>A|BA/2G/2 A2 B>c|d>f ed c>e|a2 ag/2a/2 b>g|
a2 e/2f/2e/2d/2 c>A|[1 BA/2G/2 A3 c:|[2 BA/2G/2 A4|]
(:musicend:)

Ytterligare en nedteckning:

%green% Vem har gjort [[!Kategori:andrastämma|stämman]]?? %blue% Osäker, kan vara egen, men lika troligt är det en uppsnappad stämma från någon stämma (förlåt, kunde inte hejda mig;-). Hur som helst är den inte särskilt originell, en ganska standardiserad stämma. Men den funkar... /Håkan

(:music:)
